!!!ONB: MCCC : IWM0404_03 : Extracted Monophonic Melody
!!!COM: Mozart, Wolfgang Amadeus
!!!OPR: Piano Sonata No.4
!!!OMV: 3
!!!SCT: K.282 ; K⁶.189g
!!!ODT: 1775///
**kern
*thru
*staff1
*>A
*clefG2
*k[b-e-a-]
*E-:
*M2/4
8b-
=1
4.b-
8bb-
=2
4.bb-
8aa-
=3
16aa-
16gg
16ff
16ee-
16cc
16ee-
16dd
16ff
=4
16ee-
16gg
16ff
16aa-
8gg
8b-
=5
4.b-
8bb-
=6
4.bb-
8aa-
=7
16aa-
16gg
16ff
16ee-
8aa-
8gg
=8
8gg
8ff
8r
8ff
=9
16ee
8.ff
8r
8ff
=10
8.eee-
16ccc
8aa
8ee-
=11
16dd
8.ff
8r
8ff
=12
8.eee-
16ccc
8aa
8ee-
=13
16dd
16ee-
16ff
16gg
16ff
16gg
16aa
16bb-
=14
16ff#
16gg
16dd
16ee-
16b
16cc
16g
16cc
=15
8b-
8a
4r
=16
8r
8ff
8ee-
8dd
=17
8r
8b
8b
8cc
=18
8r
8gg
8ff
8ee-
=19
8r
8cc#
8cc#
8dd
=20
2bb-:
=21
2gg:
=22
16gg
16ff
16ee-
16dd
16dd
16cc
16b-
16a
=23
16cc
16b-
16dd
16cc
16ee-
16dd
16ff
16ee-
=24
8gg
4ff
8dd
=25
8b
4dd
8cc
=26
8ff#
4gg
8ee-
=27
8cc#
4ee-
8dd
=28
2bb-:
=29
2gg:
=30
16gg
16ff
16ee-
16dd
16dd
16cc
16b-
16a
=31
16a
16b-
16cc
16dd
16ee-
16ff
16gg
16aa
=32
16bb-
16ccc
16ddd
16aa
4bb-
=33
16gg
16aa
16bb-
16ff#
4gg
=34
16gg
16ff
16ee-
16dd
16dd
16cc
16b-
16a
=35
16b-
16cc
16dd
16ee-
16ff
16gg
16aa
16bb-
=36
16ff#
16gg
16ee-
16cc
16dd
16ee-
16cc
16a
=37
16b-
16cc
16dd
16ee-
16ff
16gg
16aa
16bb-
=38
16ff#
16gg
16ee-
16cc
16dd
16ee-
16cc
16a
=39
4b-
8r
*>A
8b-
=40
4.b-
8bb-
=41
4.bb-
8aa-
=42
16aa-
16gg
16ff
16ee-
16cc
16ee-
16dd
16ff
=43
16ee-
16gg
16ff
16aa-
8gg
8b-
=44
4.b-
8bb-
=45
4.bb-
8aa-
=46
16aa-
16gg
16ff
16ee-
8aa-
8gg
=47
8gg
8ff
8r
8ff
=48
16ee
8.ff
8r
8ff
=49
8.eee-
16ccc
8aa
8ee-
=50
16dd
8.ff
8r
8ff
=51
8.eee-
16ccc
8aa
8ee-
=52
16dd
16ee-
16ff
16gg
16ff
16gg
16aa
16bb-
=53
16ff#
16gg
16dd
16ee-
16b
16cc
16g
16cc
=54
8b-
8a
4r
=55
8r
8ff
8ee-
8dd
=56
8r
8b
8b
8cc
=57
8r
8gg
8ff
8ee-
=58
8r
8cc#
8cc#
8dd
=59
2bb-:
=60
2gg:
=61
16gg
16ff
16ee-
16dd
16dd
16cc
16b-
16a
=62
16cc
16b-
16dd
16cc
16ee-
16dd
16ff
16ee-
=63
8gg
4ff
8dd
=64
8b
4dd
8cc
=65
8ff#
4gg
8ee-
=66
8cc#
4ee-
8dd
=67
2bb-:
=68
2gg:
=69
16gg
16ff
16ee-
16dd
16dd
16cc
16b-
16a
=70
16a
16b-
16cc
16dd
16ee-
16ff
16gg
16aa
=71
16bb-
16ccc
16ddd
16aa
4bb-
=72
16gg
16aa
16bb-
16ff#
4gg
=73
16gg
16ff
16ee-
16dd
16dd
16cc
16b-
16a
=74
16b-
16cc
16dd
16ee-
16ff
16gg
16aa
16bb-
=75
16ff#
16gg
16ee-
16cc
16dd
16ee-
16cc
16a
=76
16b-
16cc
16dd
16ee-
16ff
16gg
16aa
16bb-
=77
16ff#
16gg
16ee-
16cc
16dd
16ee-
16cc
16a
=78
4b-
8r
*>B
8b-
=79
4.b-
8bb-
=80
4.bb-
8cc
=81
16dd-
16cc
16dd
16cc
16ee-
16cc
16ee
16cc
=82
16ff
16cc
16gg
16cc
8aa-
8a-
=83
4.a-
8aa-
=84
4.aa-
8b-
=85
16cc-
16b-
16cc
16b-
16dd-
16b-
16dd
16b-
=86
16ee-
16b-
16ff
16b-
8gg
8r
=87
8r
8dd-
[4dd-
=88
8dd-]
8cc
[4cc
=89
8cc]
8b-
[4b-
=90
8b-]
8a
[4a
=91
8a]
8ee-
[4ee-
=92
8ee-]
8dd-
[4dd-
=93
8dd-]
8cc
[4cc
=94
8cc]
8b
8b
8b
=95
8cc
8dd
8ee-
8ff
=96
8ee-
8dd
8cc
8b
=97
8cc
8dd
8ee-
8ff
=98
8ee-
8ccc
8bb
8r
=99
8cc
8b
8r
8b
=100
8b
8b-
8r
8b-
=101
4.b-
8bb-
=102
4.bb-
8aa-
=103
16aa-
16gg
16ff
16ee-
16cc
16ee-
16dd
16ff
=104
16ee-
16gg
16ff
16aa-
8gg
8b-
=105
4.b-
8bb-
=106
4.bb-
8aa-
=107
16aa-
16gg
16ff
16ee-
8aa-
8gg
=108
8gg
8ff
8r
8b-
=109
16a
8.b-
8r
8b-
=110
8.aa-
16ff
8dd
8a-
=111
16g
8.b-
8r
8b-
=112
8.aa-
16ff
8dd
8a-
=113
16g
16b-
16ee-
16gg
16bb-
16gg
16ee-
16b-
=114
16cc
16ccc
16bb
16ccc
16gg
16aa-
16ee
16ff
=115
8ee-
8dd
4r
=116
8r
8bb-
8aa-
8gg
=117
8r
8ee
8ee
8ff
=118
8r
8ccc
8bb-
8aa-
=119
8r
8ff#
8ff#
8gg
=120
2ee-:
=121
2cc:
=122
16cc
16b-
16a-
16g
16g
16f
16e-
16d
=123
16f
16e-
16g
16f
16a-
16g
16b-
16a-
=124
8cc
4b-
8g
=125
8e
4g
8f
=126
8b
4cc
8a-
=127
8f#
4a-
8g
=128
2ee-:
=129
2cc:
=130
16cc
16b-
16a-
16g
16g
16f
16e-
16d
=131
16e-
16ee-
16ff
16gg
16aa-
16bb-
16ccc
16ddd
=132
16eee-
16bb-
16gg
16ee-
4ee-
=133
16cc
16ff
16aa-
16ccc
4ccc
=134
16ccc
16bb-
16aa-
16gg
16gg
16ff
16ee-
16dd
=135
16ee-
16ff
16gg
16aa-
16bb-
16ccc
16ddd
16eee-
=136
16bb
16ccc
16aa-
16ff
16gg
16aa-
16ff
16dd
=137
16ee-
16ff
16gg
16aa-
16bb-
16gg
16ee-
16b-
=138
16b
16cc
16a-
16f
16g
16a-
16f
16d
=139
16e-
16b-
16a
16b-
16cc
16b-
16dd
16b-
=140
16ee-
16b-
16a
16b-
16cc
16b-
16dd
16b-
=141
4ee-
8r
*>B
8b-
=142
4.b-
8bb-
=143
4.bb-
8cc
=144
16dd-
16cc
16dd
16cc
16ee-
16cc
16ee
16cc
=145
16ff
16cc
16gg
16cc
8aa-
8a-
=146
4.a-
8aa-
=147
4.aa-
8b-
=148
16cc-
16b-
16cc
16b-
16dd-
16b-
16dd
16b-
=149
16ee-
16b-
16ff
16b-
8gg
8r
=150
8r
8dd-
[4dd-
=151
8dd-]
8cc
[4cc
=152
8cc]
8b-
[4b-
=153
8b-]
8a
[4a
=154
8a]
8ee-
[4ee-
=155
8ee-]
8dd-
[4dd-
=156
8dd-]
8cc
[4cc
=157
8cc]
8b
8b
8b
=158
8cc
8dd
8ee-
8ff
=159
8ee-
8dd
8cc
8b
=160
8cc
8dd
8ee-
8ff
=161
8ee-
8ccc
8bb
8r
=162
8cc
8b
8r
8b
=163
8b
8b-
8r
8b-
=164
4.b-
8bb-
=165
4.bb-
8aa-
=166
16aa-
16gg
16ff
16ee-
16cc
16ee-
16dd
16ff
=167
16ee-
16gg
16ff
16aa-
8gg
8b-
=168
4.b-
8bb-
=169
4.bb-
8aa-
=170
16aa-
16gg
16ff
16ee-
8aa-
8gg
=171
8gg
8ff
8r
8b-
=172
16a
8.b-
8r
8b-
=173
8.aa-
16ff
8dd
8a-
=174
16g
8.b-
8r
8b-
=175
8.aa-
16ff
8dd
8a-
=176
16g
16b-
16ee-
16gg
16bb-
16gg
16ee-
16b-
=177
16cc
16ccc
16bb
16ccc
16gg
16aa-
16ee
16ff
=178
8ee-
8dd
4r
=179
8r
8bb-
8aa-
8gg
=180
8r
8ee
8ee
8ff
=181
8r
8ccc
8bb-
8aa-
=182
8r
8ff#
8ff#
8gg
=183
2ee-:
=184
2cc:
=185
16cc
16b-
16a-
16g
16g
16f
16e-
16d
=186
16f
16e-
16g
16f
16a-
16g
16b-
16a-
=187
8cc
4b-
8g
=188
8e
4g
8f
=189
8b
4cc
8a-
=190
8f#
4a-
8g
=191
2ee-:
=192
2cc:
=193
16cc
16b-
16a-
16g
16g
16f
16e-
16d
=194
16e-
16ee-
16ff
16gg
16aa-
16bb-
16ccc
16ddd
=195
16eee-
16bb-
16gg
16ee-
4ee-
=196
16cc
16ff
16aa-
16ccc
4ccc
=197
16ccc
16bb-
16aa-
16gg
16gg
16ff
16ee-
16dd
=198
16ee-
16ff
16gg
16aa-
16bb-
16ccc
16ddd
16eee-
=199
16bb
16ccc
16aa-
16ff
16gg
16aa-
16ff
16dd
=200
16ee-
16ff
16gg
16aa-
16bb-
16gg
16ee-
16b-
=201
16b
16cc
16a-
16f
16g
16a-
16f
16d
=202
16e-
16b-
16a
16b-
16cc
16b-
16dd
16b-
=203
16ee-
16b-
16a
16b-
16cc
16b-
16dd
16b-
=204
4ee-
8r
==
*-
